X:116
T:Willie Coleman's
R:jig
M:6/8
K:G
A |: B2G AGE | GED GBd | edB dgb | age dBA |
B2G AGE | GED GBd | edB dBA |1 BGG G2A :|2 BGG G2f |:
gfg edB | dgb age | gfg edB | GBd e3 |
gfg edB | dgb age | dBd gdB | AGF G3 :|
